Sources/FrostedUI/Resources/Icons.xcassets/shoppingBag16.imageset/shopping-bag-16.svg

<svg width="16" height="16" viewBox="0 0 16 16" fill="none" xmlns="http://www.w3.org/2000/svg" data-fui-icon="true">
  <g clip-path="url(#clip0_4630_25)">
    <path
      d="M10.7939 0.25C12.9566 0.250201 14.7741 1.87443 15.0166 4.02344L15.8066 11.0234C16.0908 13.5433 14.1188 15.75 11.583 15.75H4.41699C1.88114 15.75 -0.0908374 13.5433 0.193359 11.0234L0.983398 4.02344C1.22592 1.87442 3.0434 0.250173 5.20605 0.25H10.7939ZM5.20605 1.75C3.80681 1.75017 2.63064 2.801 2.47363 4.19141L1.68457 11.1914C1.50068 12.8219 2.77615 14.25 4.41699 14.25H11.583C13.2238 14.25 14.4993 12.8219 14.3154 11.1914L13.5264 4.19141C13.3694 2.80102 12.1932 1.7502 10.7939 1.75H5.20605ZM10.5 4.25C10.9142 4.25003 11.25 4.58581 11.25 5H10.5C11.2499 5 11.25 5.00059 11.25 5.00098V5.01953C11.2499 5.02831 11.2495 5.03942 11.249 5.05273C11.2481 5.07989 11.2463 5.11686 11.2432 5.16113C11.2369 5.24934 11.225 5.37044 11.2012 5.51367C11.1539 5.79707 11.0575 6.18657 10.8584 6.58496C10.6577 6.98642 10.3447 7.41116 9.86133 7.7334C9.37328 8.05876 8.75621 8.24999 8 8.25C7.24378 8.25 6.62672 8.05875 6.13867 7.7334C5.65532 7.41116 5.34234 6.98643 5.1416 6.58496C4.94247 6.18656 4.84606 5.79707 4.79883 5.51367C4.77497 5.37044 4.76314 5.24934 4.75684 5.16113C4.75367 5.11686 4.75188 5.07989 4.75098 5.05273C4.75054 5.03942 4.75014 5.02831 4.75 5.01953V5.00098C4.75101 5.00059 4.77811 5 5.5 5H4.75C4.75 4.58579 5.08579 4.25 5.5 4.25C5.91256 4.25003 6.24737 4.58317 6.25 4.99512V5.00293C6.25031 5.01236 6.25122 5.02977 6.25293 5.05371C6.25639 5.10213 6.26416 5.17673 6.2793 5.26758C6.31019 5.45278 6.37023 5.68871 6.4834 5.91504C6.59515 6.1384 6.75108 6.33893 6.9707 6.48535C7.18577 6.62872 7.50627 6.75 8 6.75C8.49373 6.74999 8.81424 6.62872 9.0293 6.48535C9.24891 6.33893 9.40486 6.1384 9.5166 5.91504C9.62976 5.68871 9.68981 5.45278 9.7207 5.26758C9.73584 5.17673 9.74361 5.10213 9.74707 5.05371C9.74878 5.02977 9.74969 5.01236 9.75 5.00293C9.75015 4.99842 9.74999 4.99576 9.75 4.99512C9.75263 4.58315 10.0874 4.25 10.5 4.25Z"
      fill="currentColor"
    />
  </g>
  <defs>
    <clipPath id="clip0_4630_25"><path fill="currentColor" d="M0 0H16V16H0z" /></clipPath>
  </defs>
</svg>

<svg xmlns="http://www.w3.org/2000/svg" width="16" height="16" fill="none" data-fui-icon="true" viewBox="0 0 16 16"><g clip-path="url(#a)"><path fill="currentColor" d="M10.794.25a4.25 4.25 0 0 1 4.223 3.773l.79 7a4.25 4.25 0 0 1-4.224 4.727H4.417a4.25 4.25 0 0 1-4.224-4.727l.79-7A4.25 4.25 0 0 1 5.206.25zm-5.588 1.5a2.75 2.75 0 0 0-2.732 2.441l-.79 7a2.75 2.75 0 0 0 2.733 3.059h7.166a2.75 2.75 0 0 0 2.732-3.059l-.789-7a2.75 2.75 0 0 0-2.732-2.441zm5.294 2.5a.75.75 0 0 1 .75.75h-.75l.75.001v.019l-.001.033q0 .041-.006.108a3.83 3.83 0 0 1-.385 1.424c-.2.401-.513.826-.997 1.148-.488.326-1.105.517-1.861.517s-1.373-.191-1.861-.517a2.95 2.95 0 0 1-.997-1.148 3.8 3.8 0 0 1-.391-1.532L4.75 5.02V5L5.5 5h-.75a.75.75 0 0 1 1.5-.005v.008l.003.05q.004.077.026.215c.031.185.091.42.204.647.112.223.268.424.488.57.215.144.535.265 1.029.265s.814-.121 1.03-.265c.219-.146.375-.347.487-.57a2.3 2.3 0 0 0 .233-.912v-.008a.75.75 0 0 1 .75-.745"/></g><defs><clipPath id="a"><path fill="currentColor" d="M0 0h16v16H0z"/></clipPath></defs></svg>
